X:1132
%%etbk:tnset id:166,pos:1,rep:3
%%etbk:pldat 2013-05-06T18:59
T:Eddie Kelly's #1
Z: Piano Box Version by Martin Fleischmann
H: Created 2013-02-19 /  Modified 2013-03-28
R:jig
M:6/8
K: Edor
|: "em"!3!B!5!ee !4!dBA | !5!BA!3!G !2!E!1!D!2!B,| !1!D!2!E!4!G !1!E!5!ed | !3!BAG "bm"!2!A!3!B!4!d|
"em"!5!eGe !4!d!3!B!2!A | !3!BA!1!G !2!E!1!D!1!D | !1!D!2!E!4!G !1!E!5!ed|1 "bm"!3!B!1!A!2!F "em"!1!E2A:|2 "bm"BAF "em"E2!3!d||
|: "em"!4!e2!3!f !4!gfe | !5!b!2!e!4!g !3!fed | !1!B!2!e!4!g !5!b!2!e!4!g | "bm"!3!fed "em"!2!e2f|
"bm"!5!g2f !3!e!2!d!1!B | !3!A!2!F!1!D !2!F!1!G!3!A | !5!d2!4!e !5!fed|1 !2!B!1!A!2!F "em"!1!E2!3!d:|2 !2!B!1!A!2!F "em"!1!E2!2!A||






